packages/foundations/assets/icons/functional/images/social/star_24.svg

<svg width="24" height="24" viewBox="0 0 24 24" fill="none" xmlns="http://www.w3.org/2000/svg">
<g clip-path="url(#clip0_187_436)">
<g clip-path="url(#clip1_187_436)">
<path fill-rule="evenodd" clip-rule="evenodd" d="M12 2C12.375 2 12.719 2.219 12.906 2.563L15.437 7.719L21.157 8.562C21.562 8.625 22 8.938 22 9.5C22 9.781 21.906 10.063 21.719 10.25L17.594 14.281L18.562 19.969C18.687 20.594 18.156 21.125 17.562 21.125C17.3974 21.1278 17.2353 21.0845 17.094 21L12 18.344L6.906 21C6.76472 21.0845 6.60261 21.1278 6.438 21.125C5.813 21.125 5.313 20.5 5.438 19.969L6.438 14.281L2.28 10.25C2.094 10.062 2 9.781 2 9.5C2 9.031 2.375 8.625 2.844 8.562L8.563 7.719L11.093 2.562C11.282 2.25 11.626 2 12 2ZM12 5.25L10.125 9.063C9.969 9.375 9.687 9.593 9.375 9.625L5.125 10.25L8.188 13.219C8.438 13.469 8.531 13.719 8.468 14.094L7.75 18.313L11.531 16.313C11.687 16.25 11.844 16.219 12 16.219C12.156 16.219 12.313 16.25 12.469 16.312L16.25 18.312L15.531 14.094C15.4975 13.9363 15.5059 13.7726 15.5551 13.6191C15.6044 13.4657 15.693 13.3277 15.812 13.219L18.875 10.25L14.656 9.625C14.312 9.562 14.031 9.375 13.875 9.062L12 5.25Z" fill="#1A1C1F"/>
</g>
</g>
<defs>
<clipPath id="clip0_187_436">
<rect width="24" height="24" fill="white"/>
</clipPath>
<clipPath id="clip1_187_436">
<rect width="24" height="24" fill="white"/>
</clipPath>
</defs>
</svg>

<svg xmlns="http://www.w3.org/2000/svg" width="24" height="24" fill="none"><g clip-path="url(#a)"><g clip-path="url(#b)"><path fill="#1A1C1F" fill-rule="evenodd" d="M12 2c.375 0 .719.219.906.563l2.531 5.156 5.72.843c.405.063.843.376.843.938 0 .281-.094.563-.281.75l-4.125 4.031.968 5.688c.125.625-.406 1.156-1 1.156a.9.9 0 0 1-.468-.125L12 18.344 6.906 21a.9.9 0 0 1-.468.125c-.625 0-1.125-.625-1-1.156l1-5.688L2.28 10.25C2.094 10.062 2 9.781 2 9.5c0-.469.375-.875.844-.938l5.719-.843 2.53-5.157C11.282 2.25 11.626 2 12 2m0 3.25-1.875 3.813c-.156.312-.438.53-.75.562l-4.25.625 3.063 2.969c.25.25.343.5.28.875l-.718 4.219 3.781-2q.235-.094.469-.094.235 0 .469.093l3.781 2-.719-4.218a.93.93 0 0 1 .281-.875l3.063-2.969-4.219-.625c-.344-.063-.625-.25-.781-.563z" clip-rule="evenodd"/></g></g><defs><clipPath id="a"><path fill="#fff" d="M0 0h24v24H0z"/></clipPath><clipPath id="b"><path fill="#fff" d="M0 0h24v24H0z"/></clipPath></defs></svg>
